src/assets/icons/blue-phone.svg

<svg width="25" height="25" viewBox="0 0 25 25" fill="none" xmlns="http://www.w3.org/2000/svg">
<path d="M16.1951 17.3828L18.2426 15.3344C18.5184 15.062 18.8673 14.8754 19.247 14.7975C19.6267 14.7196 20.0209 14.7536 20.3816 14.8955L22.8771 15.8922C23.2416 16.0403 23.5542 16.2929 23.7754 16.6184C23.9966 16.9439 24.1166 17.3276 24.1202 17.7212V22.2934C24.1181 22.5612 24.0618 22.8257 23.9548 23.0711C23.8478 23.3165 23.6923 23.5377 23.4976 23.7214C23.3028 23.9051 23.073 24.0475 22.8218 24.1399C22.5707 24.2324 22.3034 24.2731 22.0361 24.2595C4.54963 23.1713 1.02125 8.35714 0.35397 2.68752C0.322994 2.4091 0.351296 2.12727 0.437013 1.86058C0.52273 1.59389 0.66392 1.34838 0.851295 1.1402C1.03867 0.932018 1.26798 0.765885 1.52414 0.65273C1.78031 0.539574 2.05752 0.481961 2.33754 0.48368L6.75257 0.48368C7.14655 0.484847 7.53118 0.603901 7.85697 0.82553C8.18276 1.04716 8.43483 1.36123 8.58075 1.72734L9.5771 4.2238C9.72359 4.58324 9.76096 4.9779 9.68455 5.35847C9.60814 5.73903 9.42134 6.08864 9.14748 6.36363L7.09993 8.412C7.09993 8.412 8.2791 16.3952 16.1951 17.3828Z" fill="#0064D9"/>
</svg>

<?xml version="1.0" encoding="utf-8"?>
<!-- Generator: Adobe Illustrator 24.0.0, SVG Export Plug-In . SVG Version: 6.00 Build 0)  -->
<svg version="1.1" id="Capa_1" xmlns="http://www.w3.org/2000/svg" xmlns:xlink="http://www.w3.org/1999/xlink" x="0px" y="0px"
	 viewBox="0 0 25 25" style="enable-background:new 0 0 25 25;" xml:space="preserve">
<style type="text/css">
	.st0{fill:#FFFFFF;}
</style>
<path class="st0" d="M16.2,17.4l2-2c0.3-0.3,0.6-0.5,1-0.5s0.8,0,1.1,0.1l2.5,1c0.4,0.1,0.7,0.4,0.9,0.7c0.2,0.3,0.3,0.7,0.3,1.1
	v4.6c0,0.3-0.1,0.5-0.2,0.8s-0.3,0.5-0.5,0.7c-0.2,0.2-0.4,0.3-0.7,0.4c-0.3,0.1-0.5,0.1-0.8,0.1C4.5,23.2,1,8.4,0.4,2.7
	c0-0.3,0-0.6,0.1-0.8s0.2-0.5,0.4-0.7C1,0.9,1.3,0.8,1.5,0.7c0.3-0.1,0.5-0.2,0.8-0.2h4.4c0.4,0,0.8,0.1,1.1,0.3
	C8.2,1,8.4,1.4,8.6,1.7l1,2.5C9.7,4.6,9.8,5,9.7,5.4c-0.1,0.4-0.3,0.7-0.5,1l-2,2C7.1,8.4,8.3,16.4,16.2,17.4z"/>
</svg>
